src/assets/bold/lm-paragraph-arrow-insert-bold.svg

<svg width="24" height="24" viewBox="0 0 24 24" fill="none" xmlns="http://www.w3.org/2000/svg" fill="currentColor">
<path d="M12 14.0625C12 13.6483 12.3358 13.3125 12.75 13.3125H20.25C20.6642 13.3125 21 13.6483 21 14.0625C21 14.4767 20.6642 14.8125 20.25 14.8125H12.75C12.3358 14.8125 12 14.4767 12 14.0625Z" fill="black"/>
<path d="M3 10.0312C3 9.61704 3.33579 9.28125 3.75 9.28125L20.25 9.28125C20.6642 9.28125 21 9.61704 21 10.0313C21 10.4455 20.6642 10.7813 20.25 10.7813L3.75 10.7812C3.33579 10.7812 3 10.4455 3 10.0312Z" fill="black"/>
<path d="M3 6C3 5.58579 3.33579 5.25 3.75 5.25H20.25C20.6642 5.25 21 5.58579 21 6C21 6.41421 20.6642 6.75 20.25 6.75H3.75C3.33579 6.75 3 6.41421 3 6Z" fill="black"/>
<path d="M12 18.0938C12 17.6795 12.3358 17.3438 12.75 17.3438L20.25 17.3438C20.6642 17.3438 21 17.6795 21 18.0938C21 18.508 20.6642 18.8438 20.25 18.8438L12.75 18.8438C12.3358 18.8438 12 18.508 12 18.0938Z" fill="black"/>
<path d="M7.34467 13.8134C7.63756 13.5205 8.11244 13.5205 8.40533 13.8134L10.2803 15.6884C10.5732 15.9813 10.5732 16.4562 10.2803 16.7491L8.40533 18.6241C8.11244 18.917 7.63756 18.917 7.34467 18.6241C7.05178 18.3312 7.05178 17.8563 7.34467 17.5634L8.68934 16.2188L7.34467 14.8741C7.05178 14.5812 7.05178 14.1063 7.34467 13.8134Z" fill="black"/>
<path d="M3.75 12.4688C4.16421 12.4688 4.5 12.8045 4.5 13.2188C4.5 13.8155 4.73705 14.3878 5.15901 14.8097C5.58097 15.2317 6.15326 15.4688 6.75 15.4688H9.75C10.1642 15.4688 10.5 15.8045 10.5 16.2188C10.5 16.633 10.1642 16.9688 9.75 16.9688H6.75C5.75544 16.9688 4.80161 16.5737 4.09835 15.8704C3.39509 15.1671 3 14.2133 3 13.2188C3 12.8045 3.33579 12.4688 3.75 12.4688Z" fill="black"/>
</svg>

<svg xmlns="http://www.w3.org/2000/svg" width="24" height="24" fill="currentColor" viewBox="0 0 24 24">
  <path d="M12 14.063a.75.75 0 0 1 .75-.75h7.5a.75.75 0 0 1 0 1.5h-7.5a.75.75 0 0 1-.75-.75Zm-9-4.032a.75.75 0 0 1 .75-.75h16.5a.75.75 0 0 1 0 1.5H3.75a.75.75 0 0 1-.75-.75ZM3 6a.75.75 0 0 1 .75-.75h16.5a.75.75 0 0 1 0 1.5H3.75A.75.75 0 0 1 3 6Zm9 12.094a.75.75 0 0 1 .75-.75h7.5a.75.75 0 1 1 0 1.5h-7.5a.75.75 0 0 1-.75-.75Zm-4.655-4.281a.75.75 0 0 1 1.06 0l1.875 1.875a.75.75 0 0 1 0 1.061l-1.875 1.875a.75.75 0 1 1-1.06-1.06l1.344-1.345-1.344-1.345a.75.75 0 0 1 0-1.06Z"/>
  <path d="M3.75 12.469a.75.75 0 0 1 .75.75 2.25 2.25 0 0 0 2.25 2.25h3a.75.75 0 1 1 0 1.5h-3A3.75 3.75 0 0 1 3 13.219a.75.75 0 0 1 .75-.75Z"/>
</svg>
